X: 37696
T: Soaring Kestrel, The
R: reel
M: 4/4
K: Adorian
A2cAd2fd|ef (3gfe a3b|c'2ba geed|eged BAAG|
A2cA de (3fed|ef (3gfe a3b|c'2ba geed|1 eAAG A3E:|2 eAAG A3A||
d2fd efge|fdAB c3d|eaag abc'b|aged d2ed|
A3B G2zA|de (3fed g2ab|aged eged|1 BAAG A3A:|2 BAAG A3E||

